Pods/ProtonCore-UIFoundations/libraries/UIFoundations/Sources/Assets.xcassets/Images/IconSet/ic-pen-square.imageset/ic-pen-square.svg

<svg width="24" height="24" viewBox="0 0 24 24" fill="none" xmlns="http://www.w3.org/2000/svg">
<path fill-rule="evenodd" clip-rule="evenodd" d="M19.7744 3L21.002 4.22759L11.1201 14.1095C10.908 14.3215 10.6373 14.4651 10.3428 14.5218L9.2747 14.7273L9.48016 13.6592C9.53681 13.3647 9.68044 13.0939 9.89249 12.8819L19.7744 3ZM22.0627 3.16694L20.8351 1.93934C20.2493 1.35355 19.2995 1.35355 18.7138 1.93934L8.83183 11.8212C8.40771 12.2453 8.12046 12.7868 8.00716 13.3758L7.59253 15.5312C7.49233 16.0521 7.94979 16.5096 8.47071 16.4094L10.6261 15.9948C11.2151 15.8815 11.7566 15.5942 12.1808 15.1701L22.0627 5.28825C22.6485 4.70247 22.6485 3.75272 22.0627 3.16694ZM3.00146 6.75C3.00146 5.50736 4.00882 4.5 5.25146 4.5H14.0917V3H5.25146C3.1804 3 1.50146 4.67893 1.50146 6.75L1.50146 18.7483C1.50146 20.8194 3.1804 22.4983 5.25147 22.4983H17.0851C19.1562 22.4983 20.8351 20.8194 20.8351 18.7483V9.90814H19.3351V18.7483C19.3351 19.991 18.3277 20.9983 17.0851 20.9983H5.25147C4.00883 20.9983 3.00146 19.991 3.00146 18.7483V6.75Z" fill="#0C0C14"/>
</svg>

<svg xmlns="http://www.w3.org/2000/svg" width="24" height="24" viewBox="0 0 24 24">
  <g class="ic-pen-square">
    <path fill-rule="evenodd" d="m19.773 3 1.228 1.228-9.882 9.882a1.5 1.5 0 0 1-.778.412l-1.068.205.206-1.068a1.5 1.5 0 0 1 .412-.777L19.773 3Zm2.288.167-1.227-1.228a1.5 1.5 0 0 0-2.122 0L8.83 11.821a3 3 0 0 0-.824 1.555L7.59 15.53a.75.75 0 0 0 .878.878l2.156-.414a3 3 0 0 0 1.554-.825l9.882-9.882a1.5 1.5 0 0 0 0-2.121ZM3 6.75A2.25 2.25 0 0 1 5.25 4.5h8.84V3H5.25A3.75 3.75 0 0 0 1.5 6.75v11.998a3.75 3.75 0 0 0 3.75 3.75h11.834a3.75 3.75 0 0 0 3.75-3.75v-8.84h-1.5v8.84a2.25 2.25 0 0 1-2.25 2.25H5.25A2.25 2.25 0 0 1 3 18.748V6.75Z" class="Icon"/>
  </g>
</svg>
